assets/skaffold/original.svg

<svg viewBox="0 0 24 24" xmlns="http://www.w3.org/2000/svg" fill="#2AA2D6"><path d="m6.602 20.097h17.398v3.836h-17.398zm-2.766-6.692h13.562v3.837h-17.398v-10.528h3.836zm13.562-9.502h-17.398v-3.836h17.398zm2.766 6.692h-13.562v-3.837h17.398v10.528h-3.836z"/></svg>

<svg xmlns="http://www.w3.org/2000/svg" fill="#2aa2d6" viewBox="0 0 24 24"><path d="M6.602 20.097H24v3.836H6.602zm-2.766-6.692h13.562v3.837H0V6.714h3.836zm13.562-9.502H0V.067h17.398zm2.766 6.692H6.602V6.758H24v10.528h-3.836z"/></svg>
